26_XYZ-22_Rec709.cube
LUT_3D_SIZE 9
0.000000 0.000000 0.000000
0.125763 0.000000 0.000488
0.322589 0.000000 0.002930
0.525763 0.000000 0.008547
0.733089 0.000000 0.017827
0.943590 0.000000 0.031502
1.000000 0.000000 0.100611
1.000000 0.135531 0.470574
1.000000 0.135531 0.470574
0.000000 0.097680 0.000000
0.090598 0.060806 0.000000
0.317216 0.000000 0.002442
0.523077 0.000000 0.008059
0.731380 0.000000 0.017338
0.942369 0.000000 0.031013
1.000000 0.000000 0.099145
1.000000 0.135531 0.470574
1.000000 0.135531 0.470574
0.000000 0.264225 0.000000
0.000000 0.254945 0.000000
0.249084 0.186813 0.000000
0.508913 0.000000 0.005372
0.722589 0.000000 0.014652
0.936508 0.000000 0.028083
1.000000 0.000000 0.092796
1.000000 0.135531 0.470574
1.000000 0.135531 0.470574
0.000000 0.435897 0.000000
0.000000 0.431258 0.000000
0.000000 0.402442 0.000000
0.412943 0.317460 0.000000
0.691331 0.000000 0.000000
0.921612 0.000000 0.022466
1.000000 0.000000 0.080342
1.000000 0.135531 0.470574
1.000000 0.135531 0.470574
0.000000 0.611477 0.000000
0.000000 0.608547 0.000000
0.000000 0.592674 0.000000
0.066178 0.546276 0.000000
0.581685 0.450305 0.000000
0.868376 0.220269 0.000000
1.000000 0.000000 0.061538
1.000000 0.135531 0.470574
1.000000 0.135531 0.470574
0.000000 0.789744 0.000000
0.000000 0.787546 0.000000
0.000000 0.776068 0.000000
0.000000 0.748474 0.000000
0.337729 0.689133 0.000000
0.751648 0.585592 0.000000
1.000000 0.384615 0.000000
1.000000 0.135531 0.470574
1.000000 0.135531 0.470574
0.000000 0.968987 0.000000
0.000000 0.967521 0.000000
0.000000 0.959463 0.000000
0.000000 0.940659 0.000000
0.000000 0.900366 0.000000
0.535531 0.831502 0.000000
0.925031 0.722589 0.000000
1.000000 0.537241 0.457387
1.000000 0.157021 0.470085
0.096703 1.000000 0.566056
0.096703 1.000000 0.566056
0.096703 1.000000 0.566056
0.096703 1.000000 0.566056
0.096703 1.000000 0.566056
0.096215 1.000000 0.565812
0.719414 0.974603 0.000000
1.000000 0.860317 0.446154
1.000000 0.715263 0.446642
0.096703 1.000000 0.566056
0.096703 1.000000 0.566056
0.096703 1.000000 0.566056
0.096703 1.000000 0.566056
0.096703 1.000000 0.566056
0.096459 1.000000 0.566056
0.424908 1.000000 0.568254
0.956532 1.000000 0.596093
1.000000 1.000000 0.684249
0.000000 0.000977 0.070818
0.112088 0.000000 0.069353
0.316972 0.000000 0.069353
0.522833 0.000000 0.072039
0.731624 0.000000 0.077411
0.942613 0.000000 0.085226
1.000000 0.000000 0.099634
1.000000 0.135531 0.470574
1.000000 0.135531 0.470574
0.000000 0.098168 0.061538
0.071551 0.062759 0.064713
0.311600 0.000000 0.068864
0.520147 0.000000 0.071795
0.729915 0.000000 0.076923
0.941392 0.000000 0.084737
1.000000 0.000000 0.098168
1.000000 0.135531 0.470574
1.000000 0.135531 0.470574
0.000000 0.264469 0.020024
0.000000 0.255433 0.024176
0.243956 0.187790 0.042979
0.505983 0.000000 0.070085
0.721123 0.000000 0.075458
0.935531 0.000000 0.083272
1.000000 0.000000 0.092063
1.000000 0.135531 0.470574
1.000000 0.135531 0.470574
0.000000 0.436142 0.000000
0.000000 0.431502 0.000000
0.000000 0.402686 0.000000
0.410745 0.317949 0.000000
0.690598 0.000000 0.058364
0.920635 0.000000 0.079853
1.000000 0.000000 0.089133
1.000000 0.135531 0.470574
1.000000 0.135531 0.470574
0.000000 0.611477 0.000000
0.000000 0.608547 0.000000
0.000000 0.592674 0.000000
0.066911 0.546520 0.000000
0.580220 0.450794 0.000000
0.867643 0.220513 0.007814
1.000000 0.000000 0.084005
1.000000 0.135531 0.470574
1.000000 0.135531 0.470574
0.000000 0.789744 0.000000
0.000000 0.787546 0.000000
0.000000 0.776068 0.000000
0.000000 0.748474 0.000000
0.334310 0.689377 0.000000
0.750672 0.585836 0.000000
1.000000 0.386081 0.000000
1.000000 0.135531 0.470574
1.000000 0.135531 0.470574
0.000000 0.969231 0.000000
0.000000 0.967521 0.000000
0.000000 0.959463 0.000000
0.000000 0.940659 0.000000
0.000000 0.900366 0.000000
0.533578 0.831746 0.000000
0.924054 0.722833 0.000000
1.000000 0.537241 0.457387
1.000000 0.157021 0.470085
0.096703 1.000000 0.566056
0.096703 1.000000 0.566056
0.096703 1.000000 0.566056
0.096703 1.000000 0.566056
0.096703 1.000000 0.566056
0.096215 1.000000 0.565812
0.718193 0.974847 0.000000
1.000000 0.860317 0.446154
1.000000 0.715507 0.446642
0.096703 1.000000 0.566056
0.096703 1.000000 0.566056
0.096703 1.000000 0.566056
0.096703 1.000000 0.566056
0.096703 1.000000 0.566056
0.096459 1.000000 0.566056
0.421978 1.000000 0.568254
0.955556 1.000000 0.595849
1.000000 1.000000 0.684249
0.000000 0.005372 0.207814
0.001221 0.000000 0.208059
0.294017 0.000000 0.204640
0.507937 0.000000 0.203907
0.721612 0.000000 0.204640
0.936996 0.000000 0.206838
1.000000 0.000000 0.210256
1.000000 0.135531 0.470574
1.000000 0.135531 0.470574
0.000000 0.100122 0.202930
0.000000 0.071306 0.204640
0.288400 0.000000 0.204640
0.505006 0.000000 0.203907
0.719658 0.000000 0.204640
0.935775 0.000000 0.206838
1.000000 0.000000 0.210256
1.000000 0.135531 0.470574
1.000000 0.135531 0.470574
0.000000 0.264957 0.188523
0.000000 0.255922 0.189744
0.209768 0.191209 0.195116
0.491087 0.000000 0.203419
0.710623 0.000000 0.204151
0.929426 0.000000 0.206349
1.000000 0.000000 0.209768
1.000000 0.135531 0.470574
1.000000 0.135531 0.470574
0.000000 0.436386 0.158974
0.000000 0.431746 0.160195
0.000000 0.404151 0.166545
0.393407 0.319658 0.178755
0.684005 0.000000 0.197802
0.914530 0.000000 0.204884
1.000000 0.000000 0.208303
1.000000 0.135531 0.470574
1.000000 0.135531 0.470574
0.000000 0.611722 0.093284
0.000000 0.608791 0.095726
0.000000 0.592918 0.105739
0.053968 0.547497 0.124298
0.569475 0.452015 0.149939
0.863004 0.221978 0.181685
1.000000 0.000000 0.206349
1.000000 0.135531 0.470574
1.000000 0.135531 0.470574
0.000000 0.789744 0.000000
0.000000 0.787546 0.000000
0.000000 0.776313 0.000000
0.000000 0.748962 0.000000
0.315018 0.689866 0.019536
0.743101 0.586813 0.094750
1.000000 0.386813 0.152625
1.000000 0.135531 0.470574
1.000000 0.135531 0.470574
0.000000 0.969231 0.000000
0.000000 0.967521 0.000000
0.000000 0.959463 0.000000
0.000000 0.940659 0.000000
0.000000 0.900855 0.000000
0.522100 0.832234 0.000000
0.918681 0.723321 0.000000
1.000000 0.537729 0.457387
1.000000 0.157998 0.470085
0.096703 1.000000 0.566056
0.096703 1.000000 0.566056
0.096703 1.000000 0.566056
0.096703 1.000000 0.566056
0.096703 1.000000 0.566056
0.096215 1.000000 0.565812
0.710623 0.975336 0.000000
1.000000 0.860562 0.446154
1.000000 0.715751 0.446642
0.096703 1.000000 0.566056
0.096703 1.000000 0.566056
0.096703 1.000000 0.566056
0.096703 1.000000 0.566056
0.096703 1.000000 0.566056
0.096459 1.000000 0.566056
0.408059 1.000000 0.568010
0.951160 1.000000 0.594139
1.000000 1.000000 0.684249
0.000000 0.015385 0.349451
0.000000 0.000000 0.350427
0.229548 0.000000 0.347497
0.481807 0.000000 0.344811
0.702564 0.000000 0.343590
0.922100 0.000000 0.343590
1.000000 0.000000 0.344811
1.000000 0.135531 0.470574
1.000000 0.135531 0.470574
0.000000 0.104274 0.346276
0.000000 0.076923 0.347497
0.221978 0.000000 0.347741
0.478632 0.000000 0.344811
0.700855 0.000000 0.343590
0.920879 0.000000 0.343590
1.000000 0.000000 0.344811
1.000000 0.135531 0.470574
1.000000 0.135531 0.470574
0.000000 0.266422 0.336264
0.000000 0.257631 0.336996
0.090842 0.198046 0.340415
0.463248 0.000000 0.344567
0.691575 0.000000 0.343346
0.914042 0.000000 0.343101
1.000000 0.000000 0.344322
1.000000 0.135531 0.470574
1.000000 0.135531 0.470574
0.000000 0.437118 0.319902
0.000000 0.432479 0.320635
0.000000 0.407082 0.323810
0.352869 0.323565 0.329670
0.660806 0.000000 0.339438
0.899145 0.000000 0.342369
1.000000 0.000000 0.343834
1.000000 0.135531 0.470574
1.000000 0.135531 0.470574
0.000000 0.612210 0.293284
0.000000 0.609280 0.294017
0.000000 0.593407 0.297192
0.000000 0.549451 0.303785
0.543590 0.454457 0.314286
0.851038 0.226374 0.329426
1.000000 0.000000 0.342613
1.000000 0.135531 0.470574
1.000000 0.135531 0.470574
0.000000 0.789988 0.250794
0.000000 0.787790 0.251526
0.000000 0.776801 0.255189
0.000000 0.750183 0.263004
0.252015 0.691087 0.275458
0.726252 0.588767 0.292796
1.000000 0.389255 0.314530
1.000000 0.135531 0.470574
1.000000 0.135531 0.470574
0.000000 0.969231 0.175824
0.000000 0.967766 0.177534
0.000000 0.959707 0.182173
0.000000 0.940904 0.194383
0.000000 0.902076 0.209768
0.494750 0.833455 0.232967
0.905250 0.724786 0.260562
1.000000 0.538706 0.457387
1.000000 0.159951 0.470085
0.096703 1.000000 0.566056
0.096703 1.000000 0.566056
0.096703 1.000000 0.566056
0.096703 1.000000 0.566056
0.096703 1.000000 0.566056
0.096215 1.000000 0.565812
0.692796 0.976313 0.161416
1.000000 0.861538 0.400244
1.000000 0.716484 0.446398
0.096703 1.000000 0.566056
0.096703 1.000000 0.566056
0.096703 1.000000 0.566056
0.096703 1.000000 0.566056
0.096703 1.000000 0.566056
0.096459 1.000000 0.566056
0.377778 1.000000 0.567766
0.941880 1.000000 0.590720
1.000000 1.000000 0.684249
0.000000 0.031746 0.493529
0.000000 0.000000 0.494505
0.000000 0.000000 0.494261
0.426618 0.000000 0.489621
0.673504 0.000000 0.487179
0.899389 0.000000 0.485958
1.000000 0.000000 0.485714
1.000000 0.159219 0.482051
1.000000 0.159951 0.486691
0.000000 0.111600 0.491087
0.000000 0.086203 0.492063
0.000000 0.000000 0.494261
0.422955 0.000000 0.489621
0.671551 0.000000 0.487179
0.897924 0.000000 0.485958
1.000000 0.000000 0.485714
1.000000 0.159219 0.481807
1.000000 0.159951 0.486447
0.000000 0.269109 0.483272
0.000000 0.260317 0.483761
0.000000 0.208547 0.486935
0.404640 0.000000 0.489866
0.661538 0.000000 0.487179
0.891575 0.000000 0.485714
1.000000 0.000000 0.485470
1.000000 0.159219 0.481563
1.000000 0.159951 0.486203
0.000000 0.438584 0.471062
0.000000 0.433944 0.471551
0.000000 0.408791 0.473993
0.261783 0.330403 0.477900
0.628083 0.019292 0.484249
0.876190 0.000000 0.485470
1.000000 0.000000 0.485226
1.000000 0.158974 0.481074
1.000000 0.159951 0.485714
0.000000 0.613187 0.453724
0.000000 0.610012 0.454212
0.000000 0.594383 0.456166
0.000000 0.552869 0.460317
0.498168 0.458608 0.466911
0.822711 0.237851 0.476190
1.000000 0.000000 0.484249
1.000000 0.158974 0.480098
1.000000 0.159707 0.484737
0.000000 0.790476 0.428571
0.000000 0.788278 0.429060
0.000000 0.777534 0.431013
0.000000 0.751648 0.435897
0.130647 0.693529 0.442491
0.695238 0.591697 0.452259
1.000000 0.394139 0.465690
1.000000 0.158486 0.477411
1.000000 0.159463 0.483272
0.000000 0.969963 0.392918
0.000000 0.968254 0.393407
0.000000 0.960195 0.395604
0.000000 0.941636 0.400244
0.000000 0.903785 0.407814
0.442247 0.835409 0.418559
0.882784 0.726984 0.433211
1.000000 0.547009 0.457143
1.000000 0.185592 0.474969
0.096703 1.000000 0.566056
0.096703 1.000000 0.566056
0.096703 1.000000 0.566056
0.096703 1.000000 0.566056
0.096703 1.000000 0.566056
0.096215 1.000000 0.565812
0.659585 0.978022 0.387057
1.000000 0.864957 0.405617
1.000000 0.720879 0.446642
0.096703 1.000000 0.566056
0.096703 1.000000 0.566056
0.096703 1.000000 0.566056
0.096703 1.000000 0.566056
0.096703 1.000000 0.566056
0.096459 1.000000 0.566056
0.328694 1.000000 0.567521
0.923565 1.000000 0.586081
1.000000 1.000000 0.684249
0.000000 0.053236 0.640293
0.000000 0.007082 0.641026
0.000000 0.000000 0.641758
0.321123 0.000000 0.638339
0.621734 0.000000 0.634676
0.868132 0.000000 0.632234
1.000000 0.000000 0.630769
1.000000 0.184860 0.626374
1.000000 0.184860 0.629792
0.000000 0.121368 0.638339
0.000000 0.098657 0.639072
0.000000 0.000000 0.641758
0.316239 0.000000 0.638584
0.619536 0.000000 0.634676
0.866911 0.000000 0.632234
1.000000 0.000000 0.630769
1.000000 0.184860 0.626374
1.000000 0.184860 0.629792
0.000000 0.273016 0.631990
0.000000 0.264225 0.632479
0.000000 0.213675 0.634921
0.287424 0.000000 0.638584
0.608547 0.000000 0.634676
0.859829 0.000000 0.632234
1.000000 0.000000 0.630525
1.000000 0.184860 0.626129
1.000000 0.184860 0.629548
0.000000 0.440537 0.621978
0.000000 0.435653 0.622222
0.000000 0.410989 0.624176
0.000000 0.339927 0.627595
0.569475 0.051770 0.631990
0.843956 0.000000 0.631990
1.000000 0.000000 0.630525
1.000000 0.184860 0.625885
1.000000 0.184860 0.629304
0.000000 0.614408 0.608303
0.000000 0.611477 0.608547
0.000000 0.595604 0.610012
0.000000 0.557998 0.613431
0.417094 0.465201 0.618071
0.785836 0.250794 0.624664
1.000000 0.000000 0.630037
1.000000 0.184860 0.625153
1.000000 0.184860 0.628571
0.000000 0.791209 0.589744
0.000000 0.789011 0.590232
0.000000 0.778266 0.591697
0.000000 0.752625 0.594872
0.000000 0.697192 0.599756
0.646642 0.596093 0.606593
0.985592 0.402442 0.615873
1.000000 0.184860 0.622955
1.000000 0.184860 0.627350
0.000000 0.970696 0.565324
0.000000 0.969231 0.565812
0.000000 0.960684 0.567277
0.000000 0.942125 0.570452
0.000000 0.906716 0.575336
0.346276 0.838339 0.582662
0.847375 0.730159 0.592186
1.000000 0.547009 0.604640
1.000000 0.213187 0.621734
0.096703 1.000000 0.566056
0.096703 1.000000 0.566056
0.096703 1.000000 0.566056
0.096703 1.000000 0.566056
0.096703 1.000000 0.566056
0.096215 1.000000 0.565812
0.607082 0.980220 0.561172
1.000000 0.867643 0.573382
1.000000 0.723321 0.592186
0.096703 1.000000 0.566056
0.096703 1.000000 0.566056
0.096703 1.000000 0.566056
0.096703 1.000000 0.566056
0.096703 1.000000 0.566056
0.096459 1.000000 0.566056
0.260317 1.000000 0.567033
0.896459 1.000000 0.582173
1.000000 1.000000 0.684249
0.000000 0.076923 0.788523
0.000000 0.038828 0.789011
0.000000 0.000000 0.790476
0.024420 0.000000 0.789744
0.538462 0.000000 0.784615
0.817582 0.000000 0.781197
1.000000 0.000000 0.778999
1.000000 0.203907 0.772894
1.000000 0.202930 0.775336
0.000000 0.134310 0.787057
0.000000 0.113309 0.787790
0.000000 0.000000 0.790476
0.012698 0.000000 0.789744
0.535775 0.000000 0.784615
0.816117 0.000000 0.781197
1.000000 0.000000 0.778999
1.000000 0.203907 0.772894
1.000000 0.202930 0.775336
0.000000 0.277656 0.781685
0.000000 0.269353 0.782173
0.000000 0.220513 0.784371
0.000000 0.000000 0.789988
0.522344 0.000000 0.784860
0.808547 0.000000 0.781197
1.000000 0.000000 0.778999
1.000000 0.203907 0.772650
1.000000 0.202930 0.775336
0.000000 0.443223 0.772894
0.000000 0.438584 0.773382
0.000000 0.413919 0.774847
0.000000 0.350672 0.778510
0.472283 0.112576 0.782173
0.791697 0.000000 0.781197
1.000000 0.000000 0.778999
1.000000 0.204151 0.772405
1.000000 0.203175 0.774847
0.000000 0.616117 0.761416
0.000000 0.613187 0.761661
0.000000 0.597558 0.763126
0.000000 0.560440 0.766056
0.230769 0.473504 0.769719
0.727473 0.267888 0.774847
1.000000 0.000000 0.778755
1.000000 0.204151 0.771917
1.000000 0.203175 0.774359
0.000000 0.792918 0.746520
0.000000 0.790720 0.746764
0.000000 0.779243 0.747985
0.000000 0.754335 0.750672
0.000000 0.702808 0.754823
0.568498 0.602442 0.759707
0.943590 0.411966 0.766789
1.000000 0.204640 0.770696
1.000000 0.203663 0.773626
0.000000 0.971184 0.727228
0.000000 0.969719 0.727473
0.000000 0.961905 0.728449
0.000000 0.943101 0.731136
0.000000 0.909646 0.735287
0.065690 0.842491 0.740659
0.797070 0.735043 0.747741
1.000000 0.552137 0.756777
1.000000 0.229060 0.770452
0.166545 1.000000 0.717705
0.166545 1.000000 0.717705
0.166789 1.000000 0.717949
0.167033 1.000000 0.718437
0.167766 1.000000 0.719170
0.167766 1.000000 0.719414
0.527228 0.983639 0.724298
0.998779 0.871306 0.733333
1.000000 0.725763 0.747253
0.165079 1.000000 0.715751
0.165079 1.000000 0.715751
0.165324 1.000000 0.715995
0.165568 1.000000 0.716484
0.166300 1.000000 0.717216
0.166789 1.000000 0.717949
0.236874 1.000000 0.718193
0.852503 1.000000 0.718437
1.000000 1.000000 0.720147
0.000000 0.093773 0.938706
0.000000 0.063980 0.939194
0.000000 0.000000 0.940659
0.000000 0.000000 0.941148
0.393162 0.000000 0.937241
0.744322 0.000000 0.932845
1.000000 0.000000 0.929670
1.000000 0.195849 0.921856
1.000000 0.201709 0.923810
0.000000 0.146520 0.937485
0.000000 0.129426 0.937973
0.000000 0.000000 0.940659
0.000000 0.000000 0.941148
0.388767 0.000000 0.937241
0.742613 0.000000 0.932845
1.000000 0.000000 0.929670
1.000000 0.195849 0.921856
1.000000 0.201709 0.923810
0.000000 0.283761 0.932845
0.000000 0.275214 0.933333
0.000000 0.228571 0.935287
0.000000 0.007814 0.940415
0.366789 0.000000 0.937485
0.734066 0.000000 0.932845
0.998046 0.000000 0.929670
1.000000 0.195849 0.921856
1.000000 0.201221 0.923810
0.000000 0.446642 0.925275
0.000000 0.441758 0.925519
0.000000 0.416850 0.926984
0.000000 0.354823 0.930159
0.263248 0.157998 0.934554
0.714774 0.000000 0.933089
0.990965 0.000000 0.929670
1.000000 0.195849 0.921612
1.000000 0.200488 0.923565
0.000000 0.617827 0.915018
0.000000 0.614896 0.915263
0.000000 0.599512 0.916239
0.000000 0.562393 0.918926
0.000000 0.484249 0.922833
0.638828 0.288889 0.926740
0.973626 0.000000 0.929670
1.000000 0.195849 0.921123
1.000000 0.199512 0.923077
0.000000 0.793895 0.902076
0.000000 0.791697 0.902320
0.000000 0.780464 0.903297
0.000000 0.755800 0.905495
0.000000 0.708913 0.909402
0.437363 0.610012 0.913309
0.883761 0.425153 0.918926
1.000000 0.000733 0.924054
1.000000 0.197558 0.922344
0.000000 0.971917 0.886203
0.000000 0.970452 0.886447
0.000000 0.962882 0.887424
0.000000 0.944078 0.889377
0.000000 0.910867 0.893040
0.000000 0.847375 0.897436
0.720391 0.740904 0.903053
1.000000 0.564347 0.909890
1.000000 0.232479 0.920635
0.262515 1.000000 0.876923
0.262515 1.000000 0.876923
0.262027 1.000000 0.877167
0.260806 1.000000 0.877411
0.258608 1.000000 0.878144
0.255922 1.000000 0.878877
0.332357 0.987790 0.883516
0.948962 0.875946 0.890842
1.000000 0.724298 0.901587
0.267643 1.000000 0.875458
0.267399 1.000000 0.875458
0.266911 1.000000 0.875458
0.265690 1.000000 0.875946
0.263492 1.000000 0.876435
0.260562 1.000000 0.877411
0.257143 1.000000 0.878388
0.778266 1.000000 0.878632
1.000000 1.000000 0.879853
0.306960 0.255922 1.000000
0.305250 0.245665 1.000000
0.300855 0.218071 1.000000
0.300855 0.218071 1.000000
0.378022 0.212454 1.000000
0.735287 0.213675 1.000000
0.954335 0.144567 1.000000
1.000000 0.306227 1.000000
1.000000 0.306227 1.000000
0.310867 0.278877 1.000000
0.309158 0.269841 1.000000
0.300611 0.218071 1.000000
0.300855 0.218071 1.000000
0.374603 0.212698 1.000000
0.734554 0.213919 1.000000
0.952869 0.144322 1.000000
1.000000 0.306227 1.000000
1.000000 0.306227 1.000000
0.326007 0.369475 1.000000
0.325031 0.363126 1.000000
0.319170 0.328694 1.000000
0.302076 0.226618 1.000000
0.357021 0.213919 1.000000
0.730159 0.215629 1.000000
0.945543 0.143590 1.000000
1.000000 0.295971 1.000000
1.000000 0.306227 1.000000
0.292552 0.486691 1.000000
0.294017 0.482784 1.000000
0.300366 0.462759 1.000000
0.315018 0.417094 1.000000
0.319658 0.304274 1.000000
0.705006 0.215385 1.000000
0.930403 0.141880 1.000000
1.000000 0.182418 1.000000
1.000000 0.306227 1.000000
0.299634 0.647863 1.000000
0.298901 0.644689 1.000000
0.295238 0.628083 1.000000
0.286935 0.591209 1.000000
0.279853 0.526740 1.000000
0.638584 0.378999 1.000000
0.902076 0.151160 1.000000
1.000000 0.186813 1.000000
1.000000 0.306227 1.000000
0.185104 0.802442 1.000000
0.184371 0.799756 1.000000
0.181197 0.787546 1.000000
0.174847 0.762149 1.000000
0.226862 0.719658 1.000000
0.489621 0.652747 1.000000
0.812454 0.485958 1.000000
1.000000 0.148962 1.000000
1.000000 0.306227 1.000000
0.172405 0.968010 1.000000
0.177534 0.966545 1.000000
0.136264 0.959463 1.000000
0.066911 0.942857 1.000000
0.000000 0.909402 1.000000
0.065690 0.853968 1.000000
0.590232 0.763126 1.000000
1.000000 0.598779 1.000000
1.000000 0.305250 1.000000
0.354579 1.000000 1.000000
0.354579 1.000000 1.000000
0.354579 1.000000 1.000000
0.354579 1.000000 1.000000
0.354579 1.000000 1.000000
0.354579 1.000000 1.000000
0.251282 0.989988 1.000000
0.885226 0.885714 1.000000
1.000000 0.725763 1.000000
0.354579 1.000000 1.000000
0.354579 1.000000 1.000000
0.354579 1.000000 1.000000
0.354579 1.000000 1.000000
0.354579 1.000000 1.000000
0.354579 1.000000 1.000000
0.353602 1.000000 1.000000
0.666178 1.000000 1.000000
1.000000 1.000000 1.000000
