26_XYZ-22_Rec709.cube
LUT_3D_SIZE 33
0.000000 0.000000 0.000000
0.002198 0.000000 0.000000
0.026862 0.000000 0.000000
0.078144 0.000000 0.000244
0.125763 0.000000 0.000488
0.173871 0.000000 0.000977
0.223199 0.000000 0.001465
0.272772 0.000000 0.002198
0.322589 0.000000 0.002930
0.372894 0.000000 0.004151
0.423443 0.000000 0.005372
0.474481 0.000000 0.006838
0.525763 0.000000 0.008547
0.577289 0.000000 0.010501
0.629060 0.000000 0.012698
0.681074 0.000000 0.015140
0.733089 0.000000 0.017827
0.785592 0.000000 0.020757
0.837851 0.000000 0.024176
0.890842 0.000000 0.027595
0.943590 0.000000 0.031502
0.992186 0.000000 0.035653
1.000000 0.000000 0.039805
1.000000 0.000000 0.045665
1.000000 0.000000 0.100611
1.000000 0.000000 0.222955
1.000000 0.135531 0.470574
1.000000 0.135531 0.470574
1.000000 0.135531 0.470574
1.000000 0.135531 0.470574
1.000000 0.135531 0.470574
1.000000 0.135531 0.470574
1.000000 0.135531 0.470574
0.000000 0.003663 0.000000
0.003175 0.001954 0.000000
0.025641 0.000000 0.000000
0.077411 0.000000 0.000244
0.125275 0.000000 0.000488
0.173626 0.000000 0.000977
0.222955 0.000000 0.001465
0.272527 0.000000 0.002198
0.322344 0.000000 0.002930
0.372894 0.000000 0.004151
0.423199 0.000000 0.005372
0.474481 0.000000 0.006838
0.525763 0.000000 0.008547
0.577289 0.000000 0.010501
0.629060 0.000000 0.012698
0.681074 0.000000 0.015140
0.733089 0.000000 0.017827
0.785592 0.000000 0.020757
0.837851 0.000000 0.024176
0.890842 0.000000 0.027595
0.943590 0.000000 0.031502
0.992186 0.000000 0.035653
1.000000 0.000000 0.039805
1.000000 0.000000 0.045665
1.000000 0.000000 0.100366
1.000000 0.000000 0.222711
1.000000 0.135531 0.470574
1.000000 0.135531 0.470574
1.000000 0.135531 0.470574
1.000000 0.135531 0.470574
1.000000 0.135531 0.470574
1.000000 0.135531 0.470574
1.000000 0.135531 0.470574
0.000000 0.021245 0.000000
0.000000 0.020024 0.000000
0.019292 0.010989 0.000000
0.074237 0.000000 0.000244
0.123321 0.000000 0.000488
0.172405 0.000000 0.000733
0.221734 0.000000 0.001465
0.271551 0.000000 0.001954
0.321612 0.000000 0.002930
0.372405 0.000000 0.003907
0.422711 0.000000 0.005372
0.473993 0.000000 0.006838
0.525275 0.000000 0.008547
0.576801 0.000000 0.010256
0.628571 0.000000 0.012698
0.680586 0.000000 0.015140
0.732845 0.000000 0.017827
0.785348 0.000000 0.020757
0.837607 0.000000 0.023932
0.890598 0.000000 0.027595
0.943346 0.000000 0.031502
0.992186 0.000000 0.035409
1.000000 0.000000 0.039805
1.000000 0.000000 0.045665
1.000000 0.000000 0.100366
1.000000 0.000000 0.222466
1.000000 0.135531 0.470574
1.000000 0.135531 0.470574
1.000000 0.135531 0.470574
1.000000 0.135531 0.470574
1.000000 0.135531 0.470574
1.000000 0.135531 0.470574
1.000000 0.135531 0.470574
0.000000 0.057387 0.000000
0.000000 0.056166 0.000000
0.000000 0.049817 0.000000
0.052259 0.031013 0.000000
0.116728 0.000000 0.000000
0.169231 0.000000 0.000733
0.219292 0.000000 0.001221
0.269597 0.000000 0.001954
0.320147 0.000000 0.002686
0.370940 0.000000 0.003907
0.421734 0.000000 0.005128
0.473016 0.000000 0.006593
0.524542 0.000000 0.008303
0.576068 0.000000 0.010256
0.628083 0.000000 0.012454
0.680098 0.000000 0.014896
0.732357 0.000000 0.017582
0.784860 0.000000 0.020513
0.837363 0.000000 0.023932
0.890110 0.000000 0.027350
0.943101 0.000000 0.031258
0.991697 0.000000 0.035409
1.000000 0.000000 0.039560
1.000000 0.000000 0.045421
1.000000 0.000000 0.099878
1.000000 0.000000 0.221490
1.000000 0.135531 0.470574
1.000000 0.135531 0.470574
1.000000 0.135531 0.470574
1.000000 0.135531 0.470574
1.000000 0.135531 0.470574
1.000000 0.135531 0.470574
1.000000 0.135531 0.470574
0.000000 0.097680 0.000000
0.000000 0.096947 0.000000
0.000000 0.093284 0.000000
0.001465 0.082540 0.000000
0.090598 0.060806 0.000000
0.157753 0.014896 0.000000
0.214896 0.000000 0.000977
0.266178 0.000000 0.001709
0.317216 0.000000 0.002442
0.368742 0.000000 0.003663
0.419780 0.000000 0.004884
0.471306 0.000000 0.006349
0.523077 0.000000 0.008059
0.574847 0.000000 0.010012
0.626862 0.000000 0.012210
0.679121 0.000000 0.014652
0.731380 0.000000 0.017338
0.784127 0.000000 0.020269
0.836386 0.000000 0.023687
0.889377 0.000000 0.027106
0.942369 0.000000 0.031013
0.991209 0.000000 0.035165
1.000000 0.000000 0.039316
1.000000 0.000000 0.044933
1.000000 0.000000 0.099145
1.000000 0.000000 0.219780
1.000000 0.135531 0.470574
1.000000 0.135531 0.470574
1.000000 0.135531 0.470574
1.000000 0.135531 0.470574
1.000000 0.135531 0.470574
1.000000 0.135531 0.470574
1.000000 0.135531 0.470574
0.000000 0.138462 0.000000
0.000000 0.137973 0.000000
0.000000 0.135287 0.000000
0.000000 0.128938 0.000000
0.034432 0.115263 0.000000
0.129670 0.091575 0.000000
0.198291 0.045665 0.000000
0.260806 0.000000 0.000977
0.313309 0.000000 0.001954
0.365324 0.000000 0.003175
0.417094 0.000000 0.004396
0.468864 0.000000 0.005861
0.520879 0.000000 0.007570
0.572894 0.000000 0.009524
0.625153 0.000000 0.011722
0.677656 0.000000 0.014164
0.730159 0.000000 0.016850
0.782662 0.000000 0.019780
0.835409 0.000000 0.023199
0.888400 0.000000 0.026618
0.941392 0.000000 0.030525
0.990476 0.000000 0.034676
1.000000 0.000000 0.038828
1.000000 0.000000 0.044444
1.000000 0.000000 0.098168
1.000000 0.000000 0.217094
1.000000 0.135531 0.470574
1.000000 0.135531 0.470574
1.000000 0.135531 0.470574
1.000000 0.135531 0.470574
1.000000 0.135531 0.470574
1.000000 0.135531 0.470574
1.000000 0.135531 0.470574
0.000000 0.179731 0.000000
0.000000 0.179243 0.000000
0.000000 0.177289 0.000000
0.000000 0.173138 0.000000
0.000000 0.163614 0.000000
0.077900 0.147741 0.000000
0.169231 0.123077 0.000000
0.239316 0.080586 0.000000
0.302808 0.000000 0.000000
0.360684 0.000000 0.002442
0.413187 0.000000 0.003907
0.465446 0.000000 0.005372
0.517949 0.000000 0.007082
0.570452 0.000000 0.009035
0.622955 0.000000 0.011233
0.675458 0.000000 0.013675
0.728205 0.000000 0.016361
0.780952 0.000000 0.019292
0.833700 0.000000 0.022466
0.886935 0.000000 0.026129
0.940171 0.000000 0.030037
0.989499 0.000000 0.034188
1.000000 0.000000 0.038339
1.000000 0.000000 0.043712
1.000000 0.000000 0.096703
1.000000 0.000000 0.213675
1.000000 0.135531 0.470574
1.000000 0.135531 0.470574
1.000000 0.135531 0.470574
1.000000 0.135531 0.470574
1.000000 0.135531 0.470574
1.000000 0.135531 0.470574
1.000000 0.135531 0.470574
0.000000 0.221734 0.000000
0.000000 0.221245 0.000000
0.000000 0.219780 0.000000
0.000000 0.216606 0.000000
0.000000 0.210256 0.000000
0.001221 0.198291 0.000000
0.121612 0.180952 0.000000
0.209035 0.154823 0.000000
0.280342 0.113797 0.000000
0.344567 0.027106 0.000000
0.408059 0.000000 0.003175
0.460806 0.000000 0.004640
0.514042 0.000000 0.006349
0.567033 0.000000 0.008303
0.619780 0.000000 0.010501
0.672772 0.000000 0.012943
0.725763 0.000000 0.015629
0.778755 0.000000 0.018559
0.831746 0.000000 0.021734
0.884982 0.000000 0.025397
0.938462 0.000000 0.029060
0.988278 0.000000 0.033455
1.000000 0.000000 0.037607
1.000000 0.000000 0.042735
1.000000 0.000000 0.094994
1.000000 0.000000 0.209280
1.000000 0.135531 0.470574
1.000000 0.135531 0.470574
1.000000 0.135531 0.470574
1.000000 0.135531 0.470574
1.000000 0.135531 0.470574
1.000000 0.135531 0.470574
1.000000 0.135531 0.470574
0.000000 0.264225 0.000000
0.000000 0.263980 0.000000
0.000000 0.262759 0.000000
0.000000 0.259829 0.000000
0.000000 0.254945 0.000000
0.000000 0.245910 0.000000
0.023443 0.232723 0.000000
0.163126 0.213675 0.000000
0.249084 0.186813 0.000000
0.321856 0.147009 0.000000
0.387057 0.076435 0.000000
0.452015 0.000000 0.000733
0.508913 0.000000 0.005372
0.562637 0.000000 0.007326
0.615873 0.000000 0.009524
0.669353 0.000000 0.011966
0.722589 0.000000 0.014652
0.775824 0.000000 0.017582
0.829060 0.000000 0.020757
0.882540 0.000000 0.024420
0.936508 0.000000 0.028083
0.986569 0.000000 0.032479
1.000000 0.000000 0.036630
1.000000 0.000000 0.041514
1.000000 0.000000 0.092796
1.000000 0.000000 0.203907
1.000000 0.135531 0.470574
1.000000 0.135531 0.470574
1.000000 0.135531 0.470574
1.000000 0.135531 0.470574
1.000000 0.135531 0.470574
1.000000 0.135531 0.470574
1.000000 0.135531 0.470574
0.000000 0.306471 0.000000
0.000000 0.306227 0.000000
0.000000 0.305250 0.000000
0.000000 0.303053 0.000000
0.000000 0.299145 0.000000
0.000000 0.292796 0.000000
0.000000 0.282051 0.000000
0.073748 0.266911 0.000000
0.204151 0.246886 0.000000
0.290110 0.218803 0.000000
0.363370 0.179976 0.000000
0.429548 0.118437 0.000000
0.494505 0.000000 0.000000
0.557021 0.000000 0.006105
0.611233 0.000000 0.008303
0.664957 0.000000 0.010745
0.718681 0.000000 0.013431
0.772405 0.000000 0.016606
0.825885 0.000000 0.019780
0.879609 0.000000 0.023199
0.933578 0.000000 0.027106
0.984615 0.000000 0.031502
1.000000 0.000000 0.035653
1.000000 0.000000 0.039805
1.000000 0.000000 0.090354
1.000000 0.000000 0.197314
1.000000 0.135531 0.470574
1.000000 0.135531 0.470574
1.000000 0.135531 0.470574
1.000000 0.135531 0.470574
1.000000 0.135531 0.470574
1.000000 0.135531 0.470574
1.000000 0.135531 0.470574
0.000000 0.349695 0.000000
0.000000 0.349451 0.000000
0.000000 0.348474 0.000000
0.000000 0.346520 0.000000
0.000000 0.343101 0.000000
0.000000 0.337973 0.000000
0.000000 0.329670 0.000000
0.000000 0.317460 0.000000
0.129426 0.301343 0.000000
0.246398 0.279853 0.000000
0.330403 0.251526 0.000000
0.404884 0.213187 0.000000
0.472283 0.156044 0.000000
0.537241 0.029304 0.000000
0.604396 0.000000 0.005617
0.659829 0.000000 0.009524
0.714042 0.000000 0.012210
0.768254 0.000000 0.015140
0.821978 0.000000 0.018559
0.875946 0.000000 0.021978
0.930159 0.000000 0.025885
0.982173 0.000000 0.030037
1.000000 0.000000 0.034188
1.000000 0.000000 0.038584
1.000000 0.000000 0.087424
1.000000 0.000000 0.190476
1.000000 0.135531 0.470574
1.000000 0.135531 0.470574
1.000000 0.135531 0.470574
1.000000 0.135531 0.470574
1.000000 0.135531 0.470574
1.000000 0.135531 0.470574
1.000000 0.135531 0.470574
0.000000 0.392674 0.000000
0.000000 0.392674 0.000000
0.000000 0.391941 0.000000
0.000000 0.390232 0.000000
0.000000 0.387302 0.000000
0.000000 0.382662 0.000000
0.000000 0.376313 0.000000
0.000000 0.366056 0.000000
0.013675 0.352869 0.000000
0.180952 0.335531 0.000000
0.288156 0.312821 0.000000
0.371673 0.284493 0.000000
0.446642 0.246398 0.000000
0.515263 0.192918 0.000000
0.580464 0.098901 0.000000
0.647619 0.000000 0.000000
0.708669 0.000000 0.010501
0.763126 0.000000 0.013675
0.817582 0.000000 0.016850
0.871795 0.000000 0.020513
0.926252 0.000000 0.024420
0.979243 0.000000 0.028327
1.000000 0.000000 0.032479
1.000000 0.000000 0.036874
1.000000 0.000000 0.084005
1.000000 0.000000 0.182662
1.000000 0.135531 0.470574
1.000000 0.135531 0.470574
1.000000 0.135531 0.470574
1.000000 0.135531 0.470574
1.000000 0.135531 0.470574
1.000000 0.135531 0.470574
1.000000 0.135531 0.470574
0.000000 0.435897 0.000000
0.000000 0.435897 0.000000
0.000000 0.435165 0.000000
0.000000 0.433700 0.000000
0.000000 0.431258 0.000000
0.000000 0.427350 0.000000
0.000000 0.421978 0.000000
0.000000 0.413919 0.000000
0.000000 0.402442 0.000000
0.063004 0.387790 0.000000
0.225641 0.369475 0.000000
0.329670 0.346276 0.000000
0.412943 0.317460 0.000000
0.488645 0.279609 0.000000
0.558242 0.228327 0.000000
0.623932 0.147985 0.000000
0.691331 0.000000 0.000000
0.757509 0.000000 0.011722
0.812210 0.000000 0.014896
0.866911 0.000000 0.018559
0.921612 0.000000 0.022466
0.976068 0.000000 0.026374
1.000000 0.000000 0.030769
1.000000 0.000000 0.035165
1.000000 0.000000 0.080342
1.000000 0.000000 0.173871
1.000000 0.135531 0.470574
1.000000 0.135531 0.470574
1.000000 0.135531 0.470574
1.000000 0.135531 0.470574
1.000000 0.135531 0.470574
1.000000 0.135531 0.470574
1.000000 0.135531 0.470574
0.000000 0.479609 0.000000
0.000000 0.479365 0.000000
0.000000 0.478877 0.000000
0.000000 0.477656 0.000000
0.000000 0.475458 0.000000
0.000000 0.472039 0.000000
0.000000 0.467399 0.000000
0.000000 0.461050 0.000000
0.000000 0.451038 0.000000
0.000000 0.438584 0.000000
0.119902 0.422955 0.000000
0.270330 0.403663 0.000000
0.370940 0.379731 0.000000
0.454945 0.350183 0.000000
0.530891 0.312821 0.000000
0.601221 0.263248 0.000000
0.667643 0.191453 0.000000
0.735043 0.022222 0.000000
0.802930 0.000000 0.005861
0.861538 0.000000 0.016606
0.916484 0.000000 0.020269
0.972161 0.000000 0.024420
1.000000 0.000000 0.028816
1.000000 0.000000 0.033211
1.000000 0.000000 0.075946
1.000000 0.000000 0.165079
1.000000 0.135531 0.470574
1.000000 0.135531 0.470574
1.000000 0.135531 0.470574
1.000000 0.135531 0.470574
1.000000 0.135531 0.470574
1.000000 0.135531 0.470574
1.000000 0.135531 0.470574
0.000000 0.523321 0.000000
0.000000 0.523321 0.000000
0.000000 0.522833 0.000000
0.000000 0.521612 0.000000
0.000000 0.519658 0.000000
0.000000 0.516728 0.000000
0.000000 0.512576 0.000000
0.000000 0.506960 0.000000
0.000000 0.499145 0.000000
0.000000 0.487912 0.000000
0.000000 0.474481 0.000000
0.176801 0.458120 0.000000
0.315263 0.437851 0.000000
0.412943 0.413431 0.000000
0.496947 0.383394 0.000000
0.573138 0.346032 0.000000
0.644444 0.298168 0.000000
0.711600 0.231502 0.000000
0.779243 0.109402 0.000000
0.847131 0.000000 0.000000
0.910623 0.000000 0.018071
0.966300 0.000000 0.021978
1.000000 0.000000 0.026618
1.000000 0.000000 0.031013
1.000000 0.000000 0.071551
1.000000 0.000000 0.155311
1.000000 0.135531 0.470574
1.000000 0.135531 0.470574
1.000000 0.135531 0.470574
1.000000 0.135531 0.470574
1.000000 0.135531 0.470574
1.000000 0.135531 0.470574
1.000000 0.135531 0.470574
0.000000 0.567277 0.000000
0.000000 0.567277 0.000000
0.000000 0.566789 0.000000
0.000000 0.565812 0.000000
0.000000 0.563858 0.000000
0.000000 0.561416 0.000000
0.000000 0.557509 0.000000
0.000000 0.552625 0.000000
0.000000 0.546520 0.000000
0.000000 0.536752 0.000000
0.000000 0.524786 0.000000
0.015629 0.510379 0.000000
0.231258 0.493040 0.000000
0.359707 0.472283 0.000000
0.454945 0.447131 0.000000
0.539194 0.416606 0.000000
0.615629 0.379487 0.000000
0.687424 0.332845 0.000000
0.755556 0.270085 0.000000
0.823443 0.171917 0.000000
0.892063 0.000000 0.000000
0.959219 0.000000 0.016117
1.000000 0.000000 0.023932
1.000000 0.000000 0.028571
1.000000 0.000000 0.066667
1.000000 0.000000 0.145299
1.000000 0.032234 0.424420
1.000000 0.135531 0.470574
1.000000 0.135531 0.470574
1.000000 0.135531 0.470574
1.000000 0.135531 0.470574
1.000000 0.135531 0.470574
1.000000 0.135531 0.470574
0.000000 0.611477 0.000000
0.000000 0.611477 0.000000
0.000000 0.610989 0.000000
0.000000 0.610012 0.000000
0.000000 0.608547 0.000000
0.000000 0.606105 0.000000
0.000000 0.602686 0.000000
0.000000 0.598291 0.000000
0.000000 0.592674 0.000000
0.000000 0.584860 0.000000
0.000000 0.574359 0.000000
0.000000 0.561416 0.000000
0.066178 0.546276 0.000000
0.282784 0.527961 0.000000
0.402930 0.506471 0.000000
0.497192 0.480830 0.000000
0.581685 0.450305 0.000000
0.658364 0.413187 0.000000
0.730403 0.367277 0.000000
0.799023 0.307937 0.000000
0.868376 0.220269 0.000000
0.936996 0.021001 0.000000
1.000000 0.000000 0.004151
1.000000 0.000000 0.025397
1.000000 0.000000 0.061538
1.000000 0.000000 0.135043
1.000000 0.018803 0.368987
1.000000 0.135531 0.470574
1.000000 0.135531 0.470574
1.000000 0.135531 0.470574
1.000000 0.135531 0.470574
1.000000 0.135531 0.470574
1.000000 0.135531 0.470574
0.000000 0.655922 0.000000
0.000000 0.655678 0.000000
0.000000 0.655433 0.000000
0.000000 0.654457 0.000000
0.000000 0.652991 0.000000
0.000000 0.650794 0.000000
0.000000 0.647863 0.000000
0.000000 0.643712 0.000000
0.000000 0.638828 0.000000
0.000000 0.632479 0.000000
0.000000 0.623199 0.000000
0.000000 0.611722 0.000000
0.000000 0.598046 0.000000
0.132112 0.581929 0.000000
0.332357 0.563126 0.000000
0.445910 0.540904 0.000000
0.539683 0.514774 0.000000
0.624420 0.484005 0.000000
0.701099 0.446886 0.000000
0.773382 0.401954 0.000000
0.843223 0.344567 0.000000
0.913553 0.264957 0.000000
0.983150 0.116484 0.000000
1.000000 0.000000 0.000733
1.000000 0.000000 0.056166
1.000000 0.000000 0.124542
1.000000 0.000000 0.321123
1.000000 0.135531 0.470574
1.000000 0.135531 0.470574
1.000000 0.135531 0.470574
1.000000 0.135531 0.470574
1.000000 0.135531 0.470574
1.000000 0.135531 0.470574
0.000000 0.700122 0.000000
0.000000 0.700122 0.000000
0.000000 0.699634 0.000000
0.000000 0.698901 0.000000
0.000000 0.697680 0.000000
0.000000 0.695482 0.000000
0.000000 0.692796 0.000000
0.000000 0.689133 0.000000
0.000000 0.684493 0.000000
0.000000 0.678877 0.000000
0.000000 0.671551 0.000000
0.000000 0.661050 0.000000
0.000000 0.648840 0.000000
0.010745 0.634432 0.000000
0.214896 0.617582 0.000000
0.380464 0.598291 0.000000
0.489133 0.575336 0.000000
0.582173 0.548718 0.000000
0.666667 0.517705 0.000000
0.744078 0.480586 0.000000
0.816850 0.436386 0.000000
0.887424 0.380952 0.000000
0.958486 0.306227 0.000000
1.000000 0.184615 0.000000
1.000000 0.000000 0.014652
1.000000 0.000000 0.112332
1.000000 0.000000 0.280830
1.000000 0.135531 0.470574
1.000000 0.135531 0.470574
1.000000 0.135531 0.470574
1.000000 0.135531 0.470574
1.000000 0.135531 0.470574
1.000000 0.135531 0.470574
0.000000 0.744811 0.000000
0.000000 0.744811 0.000000
0.000000 0.744322 0.000000
0.000000 0.743590 0.000000
0.000000 0.742369 0.000000
0.000000 0.740415 0.000000
0.000000 0.737973 0.000000
0.000000 0.734554 0.000000
0.000000 0.730159 0.000000
0.000000 0.725031 0.000000
0.000000 0.718926 0.000000
0.000000 0.710134 0.000000
0.000000 0.698901 0.000000
0.000000 0.685714 0.000000
0.065690 0.670818 0.000000
0.280830 0.653480 0.000000
0.426374 0.633211 0.000000
0.532357 0.610012 0.000000
0.625153 0.582906 0.000000
0.709158 0.551648 0.000000
0.787302 0.514530 0.000000
0.860317 0.470818 0.000000
0.932601 0.416850 0.000000
0.999512 0.346032 0.000000
1.000000 0.239072 0.000000
1.000000 0.024664 0.076435
1.000000 0.000000 0.245421
1.000000 0.135531 0.470574
1.000000 0.135531 0.470574
1.000000 0.135531 0.470574
1.000000 0.135531 0.470574
1.000000 0.135531 0.470574
1.000000 0.135531 0.470574
0.000000 0.789744 0.000000
0.000000 0.789499 0.000000
0.000000 0.789255 0.000000
0.000000 0.788767 0.000000
0.000000 0.787546 0.000000
0.000000 0.785836 0.000000
0.000000 0.783394 0.000000
0.000000 0.780220 0.000000
0.000000 0.776068 0.000000
0.000000 0.771184 0.000000
0.000000 0.765324 0.000000
0.000000 0.758242 0.000000
0.000000 0.748474 0.000000
0.000000 0.736508 0.000000
0.000000 0.722589 0.000000
0.121368 0.706716 0.000000
0.337729 0.689133 0.000000
0.471551 0.668132 0.000000
0.575824 0.644444 0.000000
0.668132 0.617094 0.000000
0.751648 0.585592 0.000000
0.830769 0.548718 0.000000
0.904029 0.505495 0.000000
0.977045 0.452503 0.000000
1.000000 0.384615 0.000000
1.000000 0.286691 0.016606
1.000000 0.067888 0.204151
1.000000 0.135531 0.470574
1.000000 0.135531 0.470574
1.000000 0.135531 0.470574
1.000000 0.135531 0.470574
1.000000 0.135531 0.470574
1.000000 0.135531 0.470574
0.000000 0.834188 0.000000
0.000000 0.834188 0.000000
0.000000 0.833944 0.000000
0.000000 0.833211 0.000000
0.000000 0.832234 0.000000
0.000000 0.830525 0.000000
0.000000 0.828571 0.000000
0.000000 0.825641 0.000000
0.000000 0.822222 0.000000
0.000000 0.817827 0.000000
0.000000 0.812210 0.000000
0.000000 0.805617 0.000000
0.000000 0.797070 0.000000
0.000000 0.786569 0.000000
0.000000 0.773871 0.000000
0.000000 0.759463 0.000000
0.174115 0.743101 0.000000
0.390720 0.724542 0.000000
0.516484 0.703053 0.000000
0.619048 0.679121 0.000000
0.710867 0.651526 0.000000
0.794628 0.619536 0.000000
0.873260 0.582906 0.000000
0.948230 0.540171 0.000000
1.000000 0.488156 0.000000
1.000000 0.421734 0.000000
1.000000 0.331136 0.158974
1.000000 0.191697 0.469353
1.000000 0.135531 0.470574
1.000000 0.135531 0.470574
1.000000 0.135531 0.470574
1.000000 0.135531 0.470574
1.000000 0.135531 0.470574
0.000000 0.879365 0.000000
0.000000 0.879365 0.000000
0.000000 0.879121 0.000000
0.000000 0.878388 0.000000
0.000000 0.877411 0.000000
0.000000 0.876190 0.000000
0.000000 0.874237 0.000000
0.000000 0.871551 0.000000
0.000000 0.868132 0.000000
0.000000 0.863736 0.000000
0.000000 0.858852 0.000000
0.000000 0.852991 0.000000
0.000000 0.846154 0.000000
0.000000 0.835897 0.000000
0.000000 0.824420 0.000000
0.000000 0.811477 0.000000
0.016606 0.796337 0.000000
0.258608 0.779243 0.000000
0.440049 0.760440 0.000000
0.561416 0.738217 0.000000
0.662027 0.714042 0.000000
0.753846 0.685470 0.000000
0.838584 0.653724 0.000000
0.916972 0.617094 0.000000
0.991941 0.574847 0.000000
1.000000 0.523077 0.000000
1.000000 0.458852 0.103053
1.000000 0.368987 0.465446
1.000000 0.263248 0.467643
1.000000 0.143101 0.470330
1.000000 0.135531 0.470574
1.000000 0.135531 0.470574
1.000000 0.135531 0.470574
0.000000 0.924298 0.000000
0.000000 0.924298 0.000000
0.000000 0.924054 0.000000
0.000000 0.923321 0.000000
0.000000 0.922589 0.000000
0.000000 0.921123 0.000000
0.000000 0.919170 0.000000
0.000000 0.916972 0.000000
0.000000 0.914042 0.000000
0.000000 0.909890 0.000000
0.000000 0.905250 0.000000
0.000000 0.899878 0.000000
0.000000 0.893773 0.000000
0.000000 0.885226 0.000000
0.000000 0.874725 0.000000
0.000000 0.862515 0.000000
0.000000 0.848596 0.000000
0.055922 0.833455 0.000000
0.332357 0.815385 0.000000
0.487424 0.796093 0.000000
0.606105 0.773382 0.000000
0.705250 0.748718 0.000000
0.797070 0.719902 0.000000
0.881319 0.688156 0.000000
0.960195 0.651282 0.000000
1.000000 0.608791 0.000000
1.000000 0.557753 0.010012
1.000000 0.481563 0.460073
1.000000 0.418315 0.463004
1.000000 0.338950 0.465934
1.000000 0.217582 0.468864
1.000000 0.135531 0.470574
1.000000 0.135531 0.470574
0.000000 0.968987 0.000000
0.000000 0.968987 0.000000
0.000000 0.968742 0.000000
0.000000 0.968254 0.000000
0.000000 0.967521 0.000000
0.000000 0.966056 0.000000
0.000000 0.964347 0.000000
0.000000 0.962149 0.000000
0.000000 0.959463 0.000000
0.000000 0.955800 0.000000
0.000000 0.951404 0.000000
0.000000 0.946520 0.000000
0.000000 0.940659 0.000000
0.000000 0.933822 0.000000
0.000000 0.924298 0.000000
0.000000 0.913065 0.000000
0.000000 0.900366 0.000000
0.000000 0.886203 0.000000
0.148962 0.869841 0.000000
0.391941 0.852259 0.000000
0.535531 0.831502 0.000000
0.650305 0.809035 0.000000
0.749206 0.783394 0.000000
0.840537 0.754335 0.000000
0.925031 0.722589 0.000000
0.998291 0.685470 0.000000
1.000000 0.643223 0.000000
1.000000 0.588278 0.332845
1.000000 0.537241 0.457387
1.000000 0.471062 0.460562
1.000000 0.400244 0.463980
1.000000 0.295726 0.466911
1.000000 0.157021 0.470085
0.000000 1.000000 0.073260
0.000000 1.000000 0.072772
0.000000 1.000000 0.069841
0.000000 1.000000 0.063980
0.000000 1.000000 0.053724
0.000000 1.000000 0.038584
0.000000 1.000000 0.018315
0.000000 0.999756 0.000000
0.000000 0.999512 0.000000
0.000000 0.999512 0.000000
0.000000 0.996581 0.000000
0.000000 0.992186 0.000000
0.000000 0.986569 0.000000
0.000000 0.980708 0.000000
0.000000 0.973382 0.000000
0.000000 0.963370 0.000000
0.000000 0.951648 0.000000
0.000000 0.938462 0.000000
0.015873 0.923321 0.000000
0.210501 0.906471 0.000000
0.442247 0.888156 0.000000
0.583883 0.867643 0.000000
0.694261 0.844200 0.000000
0.793651 0.818315 0.000000
0.884005 0.789255 0.000000
0.968010 0.756777 0.000000
1.000000 0.720391 0.000000
1.000000 0.676679 0.228083
1.000000 0.626862 0.451770
1.000000 0.579976 0.454701
1.000000 0.527717 0.457875
1.000000 0.453724 0.461294
1.000000 0.374359 0.465201
0.096703 1.000000 0.566056
0.096703 1.000000 0.566056
0.096703 1.000000 0.566056
0.096703 1.000000 0.566056
0.096703 1.000000 0.566056
0.096703 1.000000 0.566056
0.096703 1.000000 0.566056
0.096703 1.000000 0.566056
0.096703 1.000000 0.566056
0.096703 1.000000 0.566056
0.071795 1.000000 0.490598
0.057387 1.000000 0.414896
0.000000 1.000000 0.339683
0.000000 1.000000 0.261538
0.000000 1.000000 0.175092
0.000000 1.000000 0.064469
0.000000 0.998046 0.000000
0.000000 0.989744 0.000000
0.000000 0.975824 0.000000
0.065446 0.960684 0.000000
0.275702 0.943590 0.000000
0.492552 0.924542 0.000000
0.626862 0.903297 0.000000
0.738217 0.879853 0.000000
0.836630 0.853724 0.000000
0.927228 0.824176 0.000000
1.000000 0.791697 0.000000
1.000000 0.753846 0.125519
1.000000 0.710623 0.446886
1.000000 0.672527 0.449084
