26_XYZ-22_Rec709.cube
LUT_3D_SIZE 5
0.000000 0.000000 0.000000
0.322589 0.000000 0.002930
0.733089 0.000000 0.017827
1.000000 0.000000 0.100611
1.000000 0.135531 0.470574
0.000000 0.264225 0.000000
0.249084 0.186813 0.000000
0.722589 0.000000 0.014652
1.000000 0.000000 0.092796
1.000000 0.135531 0.470574
0.000000 0.611477 0.000000
0.000000 0.592674 0.000000
0.581685 0.450305 0.000000
1.000000 0.000000 0.061538
1.000000 0.135531 0.470574
0.000000 0.968987 0.000000
0.000000 0.959463 0.000000
0.000000 0.900366 0.000000
0.925031 0.722589 0.000000
1.000000 0.157021 0.470085
0.096703 1.000000 0.566056
0.096703 1.000000 0.566056
0.096703 1.000000 0.566056
0.424908 1.000000 0.568254
1.000000 1.000000 0.684249
0.000000 0.005372 0.207814
0.294017 0.000000 0.204640
0.721612 0.000000 0.204640
1.000000 0.000000 0.210256
1.000000 0.135531 0.470574
0.000000 0.264957 0.188523
0.209768 0.191209 0.195116
0.710623 0.000000 0.204151
1.000000 0.000000 0.209768
1.000000 0.135531 0.470574
0.000000 0.611722 0.093284
0.000000 0.592918 0.105739
0.569475 0.452015 0.149939
1.000000 0.000000 0.206349
1.000000 0.135531 0.470574
0.000000 0.969231 0.000000
0.000000 0.959463 0.000000
0.000000 0.900855 0.000000
0.918681 0.723321 0.000000
1.000000 0.157998 0.470085
0.096703 1.000000 0.566056
0.096703 1.000000 0.566056
0.096703 1.000000 0.566056
0.408059 1.000000 0.568010
1.000000 1.000000 0.684249
0.000000 0.031746 0.493529
0.000000 0.000000 0.494261
0.673504 0.000000 0.487179
1.000000 0.000000 0.485714
1.000000 0.159951 0.486691
0.000000 0.269109 0.483272
0.000000 0.208547 0.486935
0.661538 0.000000 0.487179
1.000000 0.000000 0.485470
1.000000 0.159951 0.486203
0.000000 0.613187 0.453724
0.000000 0.594383 0.456166
0.498168 0.458608 0.466911
1.000000 0.000000 0.484249
1.000000 0.159707 0.484737
0.000000 0.969963 0.392918
0.000000 0.960195 0.395604
0.000000 0.903785 0.407814
0.882784 0.726984 0.433211
1.000000 0.185592 0.474969
0.096703 1.000000 0.566056
0.096703 1.000000 0.566056
0.096703 1.000000 0.566056
0.328694 1.000000 0.567521
1.000000 1.000000 0.684249
0.000000 0.076923 0.788523
0.000000 0.000000 0.790476
0.538462 0.000000 0.784615
1.000000 0.000000 0.778999
1.000000 0.202930 0.775336
0.000000 0.277656 0.781685
0.000000 0.220513 0.784371
0.522344 0.000000 0.784860
1.000000 0.000000 0.778999
1.000000 0.202930 0.775336
0.000000 0.616117 0.761416
0.000000 0.597558 0.763126
0.230769 0.473504 0.769719
1.000000 0.000000 0.778755
1.000000 0.203175 0.774359
0.000000 0.971184 0.727228
0.000000 0.961905 0.728449
0.000000 0.909646 0.735287
0.797070 0.735043 0.747741
1.000000 0.229060 0.770452
0.165079 1.000000 0.715751
0.165324 1.000000 0.715995
0.166300 1.000000 0.717216
0.236874 1.000000 0.718193
1.000000 1.000000 0.720147
0.306960 0.255922 1.000000
0.300855 0.218071 1.000000
0.378022 0.212454 1.000000
0.954335 0.144567 1.000000
1.000000 0.306227 1.000000
0.326007 0.369475 1.000000
0.319170 0.328694 1.000000
0.357021 0.213919 1.000000
0.945543 0.143590 1.000000
1.000000 0.306227 1.000000
0.299634 0.647863 1.000000
0.295238 0.628083 1.000000
0.279853 0.526740 1.000000
0.902076 0.151160 1.000000
1.000000 0.306227 1.000000
0.172405 0.968010 1.000000
0.136264 0.959463 1.000000
0.000000 0.909402 1.000000
0.590232 0.763126 1.000000
1.000000 0.305250 1.000000
0.354579 1.000000 1.000000
0.354579 1.000000 1.000000
0.354579 1.000000 1.000000
0.353602 1.000000 1.000000
1.000000 1.000000 1.000000
